X:423
T: Hua he bao
N: C1458
O: China,Hubei, Lichuan
S: I, 457]
R: Xiaodiao, Xiuhebao diao]
M: 2/4
L: 1/16
K: C
d2A2c2A2 | c2d4c2 | d2c2cdcA | c2A2A4 |
A2d2c2d2 | c2A2c2d2 | c3AA4 | G8 |
A4c4 | A4c4 | d2c2A2c2 | d8 |
c2A2A2c2 | A4c3A | d2A2c2c2 | A8 |
A2A2G2c2 | A4A4 | A2A2E2c2 | A4A4 |
A4c2c2 | A4c4 | A2c2d2c2 | c2d6 |
eecA-A4 | c8 | d2c2A2A2 | A4c4 | c4A4 | G8

@@@ Tune index: 6424
